static/media/behance.ee7a8a56.svg

<?xml version="1.0" encoding="UTF-8"?>
<svg xmlns="http://www.w3.org/2000/svg" xmlns:xlink="http://www.w3.org/1999/xlink" width="19px" height="12px" version="1.1" viewBox="0 0 19 12">
<!--Generator: Sketch 52.6 (67491) - http://www.bohemiancoding.com/sketch-->
    <title>
        behance
    </title>
    <desc>
        Created with Sketch.
    </desc>
    <g id="履歷" fill="none" fill-rule="evenodd" stroke="none" stroke-width="1">
        <g id="xx01" fill="#FFFFFF" transform="translate(-683.000000, -554.000000)">
            <g id="中" transform="translate(564.000000, 169.000000)">
                <g id="Group-5" transform="translate(46.000000, 271.000000)">
                    <g id="Group-7" transform="translate(57.000000, 104.000000)">
                        <g id="behance" transform="translate(16.000000, 10.000000)">
                            <g id="XMLID_5_">
                                <g id="Group">
                                    <rect id="Rectangle" width="4.67431579" height="1.16273684" x="12.1519474" y="0.794736842"/>
                                    <path id="Shape" fill-rule="nonzero" d="M18.6866842,7.32947368 C18.6866842,7.53921053 18.6783158,7.74110526 18.6615789,7.93410526 L12.6635789,7.93410526 L12.6496316,7.93410526 C12.5938421,9.25963158 13.5612105,10.0484737 14.6612105,10.0484737 C15.4407368,10.0484737 16.1258421,9.635 16.5206842,8.93410526 L18.4885263,8.93410526 C17.9485263,10.9047368 16.3620526,11.7247368 14.4891053,11.7247368 C12.0356842,11.7247368 10.2915263,9.75689474 10.2915263,7.32952632 C10.2915263,4.90215789 12.171,2.93431579 14.4891053,2.93431579 C16.8072105,2.93431579 18.6866842,4.90210526 18.6866842,7.32947368 Z M12.6496316,6.46673684 L16.3472105,6.46673684 C16.2002632,5.37468421 15.4286316,4.67842105 14.4984211,4.67842105 C13.5682105,4.67836842 12.7965789,5.37463158 12.6496316,6.46673684 Z"/>
                                    <path id="Shape" fill-rule="nonzero" d="M9.57063158,7.51552632 C9.72178947,9.20152632 9.41947368,10.248 7.69857895,11.0968421 C7.05442105,11.4145263 6.247,11.5140526 5.48931579,11.5140526 L0.036,11.5140526 L0.036,0.0506315789 C0.036,0.0506315789 5.29168421,0.0506315789 6.03584211,0.0506315789 C6.78,0.0506315789 9.07852632,0.492473684 9.09157895,2.70173684 C9.10042105,4.22915789 8.23578947,4.92726316 7.51347368,5.26168421 C7.51347368,5.26163158 9.41947368,5.82952632 9.57063158,7.51552632 Z M7.11442105,8.00063158 C7.11442105,6.39184211 5.29773684,6.43368421 5.29773684,6.43368421 L2.55921053,6.43368421 L2.55921053,9.56752632 L5.29773684,9.56752632 C5.29773684,9.56757895 7.11442105,9.60942105 7.11442105,8.00063158 Z M6.66373684,3.34121053 C6.66373684,1.99242105 5.14052632,2.02731579 5.14052632,2.02731579 L2.55921053,2.02731579 L2.55921053,4.65515789 L5.14052632,4.65515789 C5.14052632,4.65515789 6.66373684,4.69 6.66373684,3.34121053 Z"/>
                                </g>
                            </g>
                        </g>
                    </g>
                </g>
            </g>
        </g>
    </g>
</svg>

<svg xmlns="http://www.w3.org/2000/svg" width="19" height="12"><g fill="#FFF" fill-rule="evenodd"><path d="M12.152.795h4.674v1.163h-4.674z"/><path fill-rule="nonzero" d="M18.687 7.33c0 .21-.009.411-.025.604H12.65c-.056 1.326.911 2.114 2.011 2.114.78 0 1.465-.413 1.86-1.114h1.968c-.54 1.97-2.127 2.79-4 2.79-2.453 0-4.197-1.967-4.197-4.394 0-2.428 1.879-4.396 4.197-4.396s4.198 1.968 4.198 4.395zm-6.037-.863h3.697c-.147-1.092-.918-1.789-1.849-1.789-.93 0-1.701.697-1.848 1.789zM9.57 7.516c.152 1.686-.15 2.732-1.871 3.58-.645.319-1.452.418-2.21.418H.036V.051h6c.744 0 3.043.441 3.056 2.65.008 1.528-.856 2.226-1.579 2.56 0 0 1.906.569 2.058 2.255zM7.115 8c0-1.61-1.816-1.567-1.816-1.567h-2.74v3.134h2.739S7.114 9.609 7.114 8zm-.45-4.66c0-1.349-1.523-1.314-1.523-1.314H2.559v2.628h2.582s1.523.035 1.523-1.314z"/></g></svg>
